X:2158
T:Bridge Over the River Ash
M:2/8
L:1/8
Q:200
N:Fiddle-L, 6/99
K:G
d/2d3[|g4|f4|e4|d2ef|g2d2|B2c2|{ABA}AG2|F2D2|
g4|f4|e4|d2ef|g2A2|^c2d2-|d4-|dd/2d3|
g4|f4|e4|d2ef|g2d2|B2c2|{ABA}AG2|F2D2|
g4|f4|e4|d2ef|g2A2|^c2d2-|d4-|dAA2|]
[|c4|B4|d2AB|cAB2|g2AB|cAB2|D2d2-|ddd2|
c4|B4|{f}g2f2|e2d2|c2B2|A2G2-|G4-|1G2DD2:|2G4|]
d4|a4|
K:D
[|f3f|g2b2|z2B2|c2A2||~d2cd|~e2de|~f2ef|~g2ea|A2e2|d{ed}ec2|A4|e4|
K:A
[|c3c|d2f2|z2F2|G2E2|~A2GA|~B2AB|~c2Bc|~d2Be|E2B2|A{BA}AG2|
M:3/4
Q:280
Ad2cBE|Be2dcA|
M:2/8
Q:550
K:D
~d2cd|~e2de|~f2ef|~g2ea|A2e2|d{ed}ec2|d4|.a3z|
[|f3f|g2b2|z2B2|c2A2||~d2cd|~e2de|~f2ef|~g2ea|A2e2|d{ed}ec2|A4|e4|
K:A
[|c3c|d2f2|z2F2|G2E2|~A2GA|~B2AB|~c2Bc|~d2Be|E2B2|A{BA}AG2|
M:3/4
Q:280
Ad2cBE|Be2dcA|
M:2/8
Q:450
K:D
~d2cd|~e2de|~f2ef|~g2ea|A2e2|d{ed}ec2|d4|.d'3z|]


